!!!COM: Schiørring, Niels
!!!CDT: 1743-1798
!!!OPR@@DA: Choral-Bog
!!!ONM: 29
!!!OTL@@DA: Herre Jeſu Chriſt! min Frelſer du
**kern	**fb	**kern	**kern	**kern	**kern	**kern	**kern	**kern
*part6	*part6	*part6	*part5	*part5	*part4	*part3	*part2	*part1
*staff8	*	*staff7	*staff6	*staff5	*staff4	*staff3	*staff2	*staff1
*clefF4	*	*clefC1	*clefF4	*clefC1	*clefF4	*clefC4	*clefC3	*clefC1
*mclefF4	*	*mclefG2	*mclefF4	*mclefG2	*mclefF4	*mclefGv2	*mclefG2	*mclefG2
*k[b-]	*	*k[b-]	*k[b-]	*k[b-]	*k[b-]	*k[b-]	*k[b-]	*k[b-]
*F:	*	*F:	*F:	*F:	*F:	*F:	*F:	*F:
*M4/4	*	*M4/4	*M4/4	*M4/4	*M4/4	*M4/4	*M4/4	*M4/4
*met(c)	*	*met(c)	*met(c)	*met(c)	*met(c)	*met(c)	*met(c)	*met(c)
*MM180	*	*MM180	*MM180	*MM180	*MM180	*MM180	*MM180	*MM180
*	*	*	*^	*^	*	*	*	*
2GG	.	2g	2ryy	2GG	2B-	2d	2GG	2B-	2d	2g
=1	=1	=1	=1	=1	=1	=1	=1	=1	=1	=1
2BB-	6	2g	2G	2BB-	2g	2d	2BB-	2G	2d	2g
2GG	.	2g	2ryy	2GG	2B-	2d	2GG	2B-	2d	2g
=2	=2	=2	=2	=2	=2	=2	=2	=2	=2	=2
2D	#	2f#X	2A	2D	2f#X	2d	2D	2A	2d	2f#X
2GG	.	2b-	2ryy	2GG	2B-	2d	2GG	2B-	2d	2b-
=3	=3	=3	=3	=3	=3	=3	=3	=3	=3	=3
2C	6 -	2a	2ryy	2C	2c	2e-X	2C	2c	2e-X	2a
2C#X	7 5	2g	2B-	2C#X	2g	2en	2C#X	2B-	2en	2g
=4	=4	=4	=4	=4	=4	=4	=4	=4	=4	=4
2D	#	2f#X	2A	2D	2f#X	2d	2D	2A	2d	2f#X
2E-X	#2|	2f#	2A	2E-X	2f#	2cni	2E-X	2A	2c	2f#
=5	=5	=5	=5	=5	=5	=5	=5	=5	=5	=5
2D	#	2f#X	2A	2D	2f#X	2d	2D	2A	2d	2f#X
2C	#4|	2f#	2A	2C	2f#	2d	2C	2A	2d	2f#
=6	=6	=6	=6	=6	=6	=6	=6	=6	=6	=6
2BBn	6	2g	1G	2BBn	2g	2d	2BBn	2G	2d	2g
2C	.	2e	.	2C	2e	2c	2C	2G	2c	2e
=7	=7	=7	=7	=7	=7	=7	=7	=7	=7	=7
2AA	#6\	1f#X	2.A	2AA	1f#X	2c	(2AA	1A	(2c	1f#X
2D	#	.	.	2D	.	2d	2D)	.	2d)	.
.	.	.	4c	.	.	.	.	.	.	.
=8	=8	=8	=8	=8	=8	=8	=8	=8	=8	=8
2GG	.	2g	2ryy	2GG	2B-	2d	2GG	2B-	2d	2g
2Fni	.	2a	2c	2Fni	2a	2fni	2F	2c	2f	2a
=9	=9	=9	=9	=9	=9	=9	=9	=9	=9	=9
2D	.	2a	2d	2D	2a	2f	2D	2d	2f	2a
2E	6	2cc	2c	2E	2cc	2g	2E	2c	2g	2cc
=10	=10	=10	=10	=10	=10	=10	=10	=10	=10	=10
2F	.	2a	2c	2F	2a	2f	2F	2c	2f	2a
2B-	.	2f	2B-	2B-	2f	2d	2B-	2d	2f	2f
=11	=11	=11	=11	=11	=11	=11	=11	=11	=11	=11
2E-X	.	2g	2B-	2E-X	2g	1e-X	2E-X	2B-	2e-X	2g
2C	6 -	2a	2c	2C	2a	.	2C	2c	2e-	2a
=12	=12	=12	=12	=12	=12	=12	=12	=12	=12	=12
2BB-	.	2b-	2F	2BB-	2b-	2d	2BB-	2F	2d	2b-
4D	6	2b-	4d	4D	2b-	4f	(4D	(4d	4f	2b-
4Eni	5	.	4c	4Eni	.	4g	4Eni)	4c)	4g	.
=13	=13	=13	=13	=13	=13	=13	=13	=13	=13	=13
4F	.	2a	2.c	4F	2a	4f	(4F	[2c	(4a	2a
4F#X	5	.	.	4F#X	.	2d	4F#X)	.	2d)	.
4G	4	2g	.	4G	2g	.	(4G	(4c]	.	2g
4C#X	7 5	.	4B-	4C#X	.	4e	4C#X)	4B-)	4e	.
=14	=14	=14	=14	=14	=14	=14	=14	=14	=14	=14
2D	#	2f#X	2A	2D	2f#X	2d	2D	2A	2d	2f#X
2AA	#6\	2f#	2A	2AA	2f#	2cni	2AA	2A	2c	2f#
=15	=15	=15	=15	=15	=15	=15	=15	=15	=15	=15
2E-X	#2|	2f#X	2A	2E-X	2f#X	2c	2E-X	2A	2c	2f#X
4D	#	2f#	2A	4D	2f#	2d	(4D	2A	2d	2f#
4C	.	.	.	4C	.	.	4C)	.	.	.
=16	=16	=16	=16	=16	=16	=16	=16	=16	=16	=16
2BBn	6	2g	2G	2BBn	2g	2d	2BBn	2G	2d	2g
2BB-X	2	2eni	2G	2BB-X	2eni	2c	2BB-X	2G	2c	2e
=17	=17	=17	=17	=17	=17	=17	=17	=17	=17	=17
2AA	#6\	1f#X	2.A	2AA	1f#X	2c	(2AA	1A	(2c	1f#X
2D	8 #	.	.	2D	.	2d	2D)	.	4d	.
.	7	.	4c	.	.	.	.	.	[4c)	.
=18	=18	=18	=18	=18	=18	=18	=18	=18	=18	=18
2GG	4	2g	2ryy	2GG	4c	2d	2GG	2G	(4c]	2g
.	3	.	.	.	4B-	.	.	.	4B-)	.
*	*	*	*v	*v	*	*	*	*	*	*
*	*	*	*	*v	*v	*	*	*	*
==	==	==	==	==	==	==	==	==
*-	*-	*-	*-	*-	*-	*-	*-	*-
!!!system-decoration: {(s1,s2,s3,s4)}{(s5,s6)}{(s7,s8)}
!!!RDF**kern: i = editorial accidental
!!!RDF**kern: > = above
!!!RDF**kern: < = below
!!!AGN: chorale
!!!EED: Derek Remeš
!!!EED2: Victor Phan
!!!END: 2023/11/28
!!!ENC: Wolfgang Drescher
!!!EEV: 2023/12/08
!!!title: @{ONM}. @{OTL}